public/success.svg

<svg width="24" height="24" viewBox="0 0 24 24" fill="none" xmlns="http://www.w3.org/2000/svg">
<path d="M10.6 13.8L8.425 11.625C8.24167 11.4417 8.01267 11.3543 7.738 11.363C7.46267 11.371 7.23333 11.4667 7.05 11.65C6.86667 11.8333 6.775 12.0667 6.775 12.35C6.775 12.6333 6.86667 12.8667 7.05 13.05L9.9 15.9C10.0833 16.0833 10.3167 16.175 10.6 16.175C10.8833 16.175 11.1167 16.0833 11.3 15.9L16.975 10.225C17.1583 10.0417 17.246 9.81233 17.238 9.537C17.2293 9.26233 17.1333 9.03333 16.95 8.85C16.7667 8.66667 16.5333 8.575 16.25 8.575C15.9667 8.575 15.7333 8.66667 15.55 8.85L10.6 13.8ZM12 22C10.6167 22 9.31667 21.7373 8.1 21.212C6.88333 20.6873 5.825 19.975 4.925 19.075C4.025 18.175 3.31267 17.1167 2.788 15.9C2.26267 14.6833 2 13.3833 2 12C2 10.6167 2.26267 9.31667 2.788 8.1C3.31267 6.88333 4.025 5.825 4.925 4.925C5.825 4.025 6.88333 3.31233 8.1 2.787C9.31667 2.26233 10.6167 2 12 2C13.3833 2 14.6833 2.26233 15.9 2.787C17.1167 3.31233 18.175 4.025 19.075 4.925C19.975 5.825 20.6873 6.88333 21.212 8.1C21.7373 9.31667 22 10.6167 22 12C22 13.3833 21.7373 14.6833 21.212 15.9C20.6873 17.1167 19.975 18.175 19.075 19.075C18.175 19.975 17.1167 20.6873 15.9 21.212C14.6833 21.7373 13.3833 22 12 22ZM12 20C14.2167 20 16.1043 19.221 17.663 17.663C19.221 16.1043 20 14.2167 20 12C20 9.78333 19.221 7.89567 17.663 6.337C16.1043 4.779 14.2167 4 12 4C9.78333 4 7.896 4.779 6.338 6.337C4.77933 7.89567 4 9.78333 4 12C4 14.2167 4.77933 16.1043 6.338 17.663C7.896 19.221 9.78333 20 12 20Z" fill="#3CBC81"/>
</svg>

<svg width="24" height="24" fill="none" xmlns="http://www.w3.org/2000/svg"><path d="m10.6 13.8-2.175-2.175a.89.89 0 0 0-.687-.262.976.976 0 0 0-.688.287.948.948 0 0 0-.275.7c0 .283.092.517.275.7L9.9 15.9a.948.948 0 0 0 .7.275.948.948 0 0 0 .7-.275l5.675-5.675a.894.894 0 0 0 .263-.688.979.979 0 0 0-.288-.687.948.948 0 0 0-.7-.275.948.948 0 0 0-.7.275L10.6 13.8ZM12 22a9.733 9.733 0 0 1-3.9-.788 10.092 10.092 0 0 1-3.175-2.137c-.9-.9-1.612-1.958-2.137-3.175A9.733 9.733 0 0 1 2 12c0-1.383.263-2.683.788-3.9a10.092 10.092 0 0 1 2.137-3.175c.9-.9 1.958-1.613 3.175-2.138A9.743 9.743 0 0 1 12 2c1.383 0 2.683.262 3.9.787a10.105 10.105 0 0 1 3.175 2.138c.9.9 1.612 1.958 2.137 3.175A9.733 9.733 0 0 1 22 12a9.733 9.733 0 0 1-.788 3.9 10.092 10.092 0 0 1-2.137 3.175c-.9.9-1.958 1.612-3.175 2.137A9.733 9.733 0 0 1 12 22Zm0-2c2.217 0 4.104-.779 5.663-2.337C19.221 16.104 20 14.217 20 12s-.779-4.104-2.337-5.663C16.104 4.779 14.217 4 12 4s-4.104.779-5.662 2.337C4.779 7.896 4 9.783 4 12s.78 4.104 2.338 5.663C7.896 19.221 9.783 20 12 20Z" fill="#3CBC81"/></svg>
